packages/tokens/icons/cloudDown/size16Px.svg

<svg viewBox="0 0 16 16" fill="none" xmlns="http://www.w3.org/2000/svg" width="1em" height="1em"><path d="M8.50916 6.58374L8.50915 13.0837" stroke="currentColor" stroke-linecap="round" stroke-linejoin="round"/><path d="M11.5092 10.0837L8.50916 13.0837L5.50916 10.0837" stroke="currentColor" stroke-linecap="round" stroke-linejoin="round"/><path d="M13.403 10.3073C14.0758 9.73747 14.5 8.90769 14.5 8.00893C14.5 6.48219 13.276 5.2206 11.6883 5.02211C11.1613 3.60318 9.70902 2.58374 8 2.58374C5.84609 2.58374 4.1 4.20303 4.1 6.20053C2.66406 6.20053 1.5 7.28006 1.5 8.61173C1.5 9.42673 1.93602 10.1473 2.60353 10.5837" stroke="currentColor" stroke-linecap="round" stroke-linejoin="round"/></svg>

<svg xmlns="http://www.w3.org/2000/svg" fill="none" viewBox="0 0 16 16" width="1em" height="1em"><path stroke="currentColor" stroke-linecap="round" stroke-linejoin="round" d="M8.51 6.584v6.5m3-3-3 3-3-3"/><path stroke="currentColor" stroke-linecap="round" stroke-linejoin="round" d="M13.403 10.307c.673-.57 1.097-1.4 1.097-2.298 0-1.527-1.224-2.788-2.812-2.987C11.161 3.603 9.71 2.584 8 2.584c-2.154 0-3.9 1.619-3.9 3.617-1.436 0-2.6 1.08-2.6 2.41 0 .816.436 1.536 1.104 1.973"/></svg>
